X:208
M:C
L:1/8
K:D
E|D/D/D B2 A>F A2|G<E =c2 E<=C C>E|D/D/D B2 A>F A2|
E|D/D/D d>D F>Dd>D|=C/C/C =c>E c>Ec>E|D/D/D d>D F>Dd>D|
d>ef>d e>fg>a|A,<A, A,>B, D3||

